icon/pk/nail-polish.svg

<svg viewBox="0 0 48 48" fill="none" xmlns="http://www.w3.org/2000/svg" height="1em" width="1em">
  <path d="M18.8951 5.88906C18.9539 4.82923 19.8305 4 20.892 4H27.108C28.1695 4 29.0461 4.82923 29.1049 5.88906L29.8827 19.8891C29.9464 21.0355 29.034 22 27.8858 22H20.1142C18.966 22 18.0536 21.0355 18.1173 19.8891L18.8951 5.88906Z" stroke="black" stroke-width="4"/>
  <path d="M11 28C11 24.6863 13.6863 22 17 22H31C34.3137 22 37 24.6863 37 28V41C37 42.6569 35.6569 44 34 44H14C12.3431 44 11 42.6569 11 41V28Z" fill="#2F88FF" stroke="black" stroke-width="4"/>
  <circle cx="24" cy="33" r="3" fill="white"/>
</svg>

<svg width="48" height="48" fill="none" xmlns="http://www.w3.org/2000/svg"><path d="M18.895 5.89A2 2 0 0 1 20.892 4h6.216a2 2 0 0 1 1.997 1.89l.778 14A2 2 0 0 1 27.886 22h-7.772a2 2 0 0 1-1.997-2.11l.778-14Z" stroke="#000" stroke-width="4"/><path d="M11 28a6 6 0 0 1 6-6h14a6 6 0 0 1 6 6v13a3 3 0 0 1-3 3H14a3 3 0 0 1-3-3V28Z" fill="#2F88FF" stroke="#000" stroke-width="4"/><circle cx="24" cy="33" r="3" fill="#fff"/></svg>
